X:53
T:Nidelven
A:Oscar Hodde
C:Christian Christensen og Kjell Rian
O:Norway
Q:150
M:3/4
L:1/4
Z:mheiman@northernroots.org
% %vocalfont Times-Roman 12
K:D
%P:Verse
"D"FFF | "D7"AAA | "G"GD"Gm6"E | "D"F3 | A,D "Ddim"B, | "A7"CDE | "D" D3- | D2 z |
w:Langt i det fjer-ne bak fjel-le-ne bl\aa, Lig-ger et sted jeg har kj\aer.
"D"FFF | "D7"AAA | "G"GD3/"Gm6"E/ | "D"F3 | A,D "Ddim"B, | "A7"CDE | "D" D3- | D2 z ||
w:Dit mi-ne tan-ker og dr\om-mer vil g\aa, All-tid du er meg s\aa n\aer.
%P:Refrain
"D"FDE | F"D7"G3/F/ | "A7"FE3/^D/ | E3 | EFG | F2 E | "D"DF2- | F3 |
w: Nid-el-ven, stil-le og vak-ker du er, Her hvor jeg g\aar og dr\om-mer.
"D"FDE | F"D7"G3/F/ | "A7"FE3/^D/ | E3 | EFG | F2 E | "D"ED2- | D2 D
w:Dr\om-mer om deg som jeg had-de s\aa kj\aer, Nu er det ba-re min-ner_  Den
"G"B2A | GAB | "D"AA3/G/ | F3 | AGF | "Cdim"AGF | "Em"FE3/^D/ | "A7"E3 |
w: gam-le by-bro er lyk-kens por-tal, Sam-men vi sei-ler i stjer-ne-ko-rall.
"D"FDE | F"D7"G3/F/ | "A7"FE3/^D/ | E3 | EFG | F2 E | "D"ED2- | D2 z |]
w: Nid-el-ven, stil-le og vak-ker du er, Her hvor jeg g\aar og dr\om-mer.

